X: 1
T: Drag Her Round The Road
R: reel
M: 4/4
L: 1/8
K: Emin
BEED E2GE|E2GE DEGA|BEED E2DE|1 GABG A2GA:|2 GABG A2BA||
~G3F GBdB|c2AB cded|~B3A GBde|dBGB A2BA|
~G3F GBdB|c2AB cdef|gedB c2ge|dBGB A2GA||
"variations"
|:BEED E2DE|GEDB, DEGA|BEED E2DE|1 GABG A2GA:|2 GABG ~A3F||
~G3F GBdB|cBAB cded|B2AB GBdB|GABG ~A3F|
DGGF GBdB|cBAB cdea|gedB cege|dBGA BA~A2||


Tune 1148	Setting 25023

